icons/evolvere-blue-folders-flat-vivid-dark-fallback/apps/64/preferences-desktop-notification.svg

<?xml version="1.0" encoding="UTF-8" standalone="no"?>
<!-- Created with Inkscape (http://www.inkscape.org/) -->

<svg
   xmlns:dc="http://purl.org/dc/elements/1.1/"
   xmlns:cc="http://creativecommons.org/ns#"
   xmlns:rdf="http://www.w3.org/1999/02/22-rdf-syntax-ns#"
   xmlns:svg="http://www.w3.org/2000/svg"
   xmlns="http://www.w3.org/2000/svg"
   xmlns:sodipodi="http://sodipodi.sourceforge.net/DTD/sodipodi-0.dtd"
   xmlns:inkscape="http://www.inkscape.org/namespaces/inkscape"
   width="64"
   height="64"
   id="svg13094"
   version="1.1"
   inkscape:version="0.48.4 r9939"
   sodipodi:docname="preferences-desktop-notification.svg">
  <sodipodi:namedview
     id="base"
     pagecolor="#ffffff"
     bordercolor="#666666"
     borderopacity="1.0"
     inkscape:pageopacity="0"
     inkscape:pageshadow="2"
     inkscape:zoom="11.313709"
     inkscape:cx="37.714392"
     inkscape:cy="33.080786"
     inkscape:document-units="px"
     inkscape:current-layer="svg13094"
     showgrid="true"
     inkscape:snap-bbox="true"
     inkscape:bbox-paths="true"
     inkscape:bbox-nodes="true"
     inkscape:snap-bbox-edge-midpoints="true"
     inkscape:snap-bbox-midpoints="true"
     inkscape:object-paths="true"
     inkscape:snap-intersection-paths="true"
     inkscape:object-nodes="true"
     inkscape:snap-smooth-nodes="true"
     inkscape:snap-midpoints="true"
     inkscape:snap-object-midpoints="true"
     inkscape:snap-center="true"
     showguides="true"
     inkscape:guide-bbox="true"
     inkscape:window-width="1920"
     inkscape:window-height="1025"
     inkscape:window-x="-2"
     inkscape:window-y="32"
     inkscape:window-maximized="1"
     inkscape:snap-global="false"
     fit-margin-top="0"
     fit-margin-left="0"
     fit-margin-right="0"
     fit-margin-bottom="0"
     showborder="true"
     inkscape:showpageshadow="false"
     inkscape:snap-page="true">
    <inkscape:grid
       type="xygrid"
       id="grid3075"
       empspacing="5"
       visible="true"
       enabled="true"
       snapvisiblegridlinesonly="true"
       originx="1.6362304e-08px"
       originy="18px" />
  </sodipodi:namedview>
  <defs
     id="defs13096" />
  <metadata
     id="metadata13099">
    <rdf:RDF>
      <cc:Work
         rdf:about="">
        <dc:format>image/svg+xml</dc:format>
        <dc:type
           rdf:resource="http://purl.org/dc/dcmitype/StillImage" />
        <dc:title />
      </cc:Work>
    </rdf:RDF>
  </metadata>
  <path
     style="color:#000000;fill:#375ad5;fill-opacity:1;fill-rule:nonzero;stroke:none;stroke-width:2.28571415000000000;marker:none;visibility:visible;display:inline;overflow:visible;enable-background:accumulate"
     d="M 0 4 L 0 34 L 0 62 L 2 64 L 32 64 L 62 64 L 64 62 L 64 34 L 64 4 L 32 4 L 0 4 z "
     id="path6498" />
  <path
     style="color:#000000;fill:#79a1ff;fill-opacity:1;fill-rule:nonzero;stroke:none;marker:none;visibility:visible;display:inline;overflow:visible;enable-background:accumulate;stroke-width:2.28571415000000000"
     d="M 2 0 L 0 1 L 0 4 L 32 4 L 64 4 L 64 1 L 62 0 L 32 0 L 2 0 z "
     id="path6502" />
  <path
     style="fill:#97b6ff;fill-opacity:1;fill-rule:nonzero"
     d="M 0,3 0,6 2,4 z"
     id="path4298"
     inkscape:connector-curvature="0"
     sodipodi:nodetypes="cccc" />
  <path
     d="M 64,6 62,4 64,3 z"
     id="path3028"
     style="fill:#567be8;fill-opacity:1"
     inkscape:connector-curvature="0" />
  <g
     id="g3043"
     inkscape:export-filename="folder.png"
     inkscape:export-xdpi="90"
     inkscape:export-ydpi="90"
     transform="translate(-0.62500009,0.082283)" />
  <g
     id="scalable"
     transform="matrix(1.0385892,0,0,1.0385892,1214.7222,1878.8121)"
     inkscape:label="#g3701"
     style="fill:#ffffff" />
  <path
     id="path3833"
     d="m 32,10.34375 c -0.375052,0 -7.059747,5.606474 -7.40625,5.75 -0.346503,0.143526 -9.047298,0.922298 -9.3125,1.1875 -0.265202,0.265202 -1.043974,8.965997 -1.1875,9.3125 -0.143526,0.346503 -5.75,7.031198 -5.75,7.40625 0,0.375052 5.606474,7.059747 5.75,7.40625 0.143526,0.346503 0.922298,9.047298 1.1875,9.3125 0.265202,0.265202 8.965997,1.043974 9.3125,1.1875 0.346503,0.143526 7.031198,5.75 7.40625,5.75 0.375052,0 7.059747,-5.606474 7.40625,-5.75 0.346503,-0.143526 9.047298,-0.922298 9.3125,-1.1875 0.265202,-0.265202 1.043974,-8.965997 1.1875,-9.3125 0.143526,-0.346503 5.75,-7.031198 5.75,-7.40625 0,-0.375052 -5.606474,-7.059747 -5.75,-7.40625 -0.143526,-0.346503 -0.922298,-9.047298 -1.1875,-9.3125 -0.265202,-0.265202 -8.965997,-1.043974 -9.3125,-1.1875 -0.346503,-0.143526 -7.031198,-5.75 -7.40625,-5.75 z M 29,23 l 6,0 0,12 -6,0 0,-12 z m 0,16 6,0 0,6 -6,0 0,-6 z"
     style="color:#000000;fill:#d7def0;fill-opacity:1;fill-rule:nonzero;stroke:none;stroke-width:2.28571415;marker:none;visibility:visible;display:inline;overflow:visible;enable-background:accumulate"
     inkscape:connector-curvature="0" />
</svg>

<svg xmlns="http://www.w3.org/2000/svg" viewBox="0 0 64 64"><g color="#000"><path d="m0 4v30 28l2 2h30 30l2-2v-28-30h-32-32" fill="#375ad5"/><path d="m2 0l-2 1v3h32 32v-3l-2-1h-30-30" fill="#79a1ff"/></g><path d="m0 3v3l2-2z" fill="#97b6ff"/><path d="m64 6l-2-2 2-1z" fill="#567be8"/><path d="m32 10.344c-.375 0-7.06 5.606-7.406 5.75-.347.144-9.05.922-9.313 1.188-.265.265-1.044 8.966-1.188 9.313-.144.347-5.75 7.03-5.75 7.406 0 .375 5.606 7.06 5.75 7.406.144.347.922 9.05 1.188 9.313.265.265 8.966 1.044 9.313 1.188.347.144 7.03 5.75 7.406 5.75.375 0 7.06-5.606 7.406-5.75.347-.144 9.05-.922 9.313-1.188.265-.265 1.044-8.966 1.188-9.313.144-.347 5.75-7.03 5.75-7.406 0-.375-5.606-7.06-5.75-7.406-.144-.347-.922-9.05-1.188-9.313-.265-.265-8.966-1.044-9.313-1.188-.347-.144-7.03-5.75-7.406-5.75m-3 12.656h6v12h-6v-12m0 16h6v6h-6v-6" fill="#d7def0" color="#000"/></svg>
